X:1
T:Lord, Not To Us
T:Henry Purcell
T:Editor:  John Henry Fowler
T:          Lord, Not To Us
C:Henry Purcell
Z:Editor:  John Henry Fowler
%%score { 1 | 2 | 3 } { ( 4 5 ) | 6 }
L:1/8
Q:1/4=100
M:3/4
K:Dmin
V:1 treble nm="Vocals" snm="Vox."
V:2 treble-8 
V:3 bass 
V:4 treble nm="Keyboard" snm="Kbd."
V:5 treble 
V:6 bass 
V:1
"^Revision:  2 - 14 - 2003" F2 G3 A | E4 z2 | z6 | F2"^( 1659 - 1695 )" G3 A | E3 E GE | F3 E D(C | %6
w: Lord, not to|us,||Lord, not to|us, but to thy|name we give the|
 =B,2) B,3 A, | A,3 E GE | F3 G A2 | G2 G3 ^F | G3 G D>E | F2 F2 G>A | C3 D _E2- | E2 z2 D2- | %14
w: _ praise we|owe, but to thy|name we give|the praise we|owe, to thy free|good- ness and thy|truth, Whence all,|_ all|
 DC B,3 A, | A,3 C D>E | F2 F2 F>E | G3 E A2- | A2 G4 | (FE) E3 D | D3 F A2- | A2 G4 | (FE) E3 D | %23
w: _ our bless- ings|flow; To thy free|good- ness and thy|truth, Whence all,|_ all|our _ bless- ings|flow; whence all,|_ all|our _ bless- ings|
 D6 |] %24
w: flow.|
V:2
 d2 e3 f | ^c4 z2 | z6 | d2 e3 f | ^c4 z2 | z6 | d2 e3 f | ^c3 c ec | d3 d =c2 | B2 B3 A | %10
w: ||||||||||
w: Lord, not to|us,||Lord, not to|us,||Lord not to|us, but to thy|name we give|the praise we|
 G3 A B>B | B2 B2 B>A | A3 B c2- | c2 z2 B2- | BA G3 F | F3 A A>B | c2 c2 =B>c | c4 z c | d4 ^c2 | %19
w: |||||||||
w: owe, to thy free|good- ness and thy|truth, Whence all,|_ all|_ our bless- ings|flow; To thy free|good- ness and thy|truth, Whence|all, all|
 d2 d2 ^c2 | d4 z A | d4 ^c2 | d2 d2 ^c2 | d6 |] %24
w: |||||
w: our bless- ings|flow, whence|all, all|our bless- ings|flow.|
V:3
 z6 | z2 z A, ^CA, | D3 A, G,F, | E,D, B,,3 A,, | A,,4 z2 | A,2 =B,3 C | ^G,3 E, G,E, | %7
w: |||||||
w: |||||||
w: |but to thy|name we give _|the _ praise we|owe,|Lord, not to|us, but to thy|
 A,4 A,,A,, | D,3 E, F,2 | B,,2 D,3 D, | G,,3 G,, G,>G, | D,2 D,2 E,>E, | F,3 F, A,,2- | %13
w: ||||||
w: ||||||
w: name, to thy|name we give|the praise we|owe, to thy free|good- ness and thy|truth, Whence all,|
 A,,2 z2 B,,2- | B,,B,, C,3 C, | F,,3 F,, F,>G, | A,2 A,2 D,>D, | C,4 z A, | B,4 A,2 | %19
w: ||||||
w: ||||||
w: _ all|_ our bless- ings|flow; To thy free|good- ness and thy|truth, Whence|all, all|
 G,2 A,2 A,,2 | D,4 F,2 | B,4 A,2 | G,2 A,2 A,,2 | D,6 |] %24
w: |||||
w: |||||
w: our bless- ings|flow; whence|all, all|our bless- ings|flow.|
V:4
 F2 G3 A | E4 E2 | D2 A2 d2 | F2 G3 A | E6 | D4 D2- | D2 E3 F | ^C4 E2 | F3 G A2 | B z B3 A | %10
 G4 G2 | F2 B2 B>A | A3 B c2- | c2 z2 B2- | BA G3 F | F4 D>E | F4 F2 | E4 c2 | d4 ^c2 | d4 ^c2 | %20
 d4 A2- | A2 G4 | F2 E4 | D6 |] %24
V:5
 D2 E3 F | ^C4 C2 | D4 F2 | D2 E3 F | ^C6 | D4 =B,2- | B,2 =B,3 A, | A,4 ^C2 | D4 =C2 | G2 G3 ^F | %10
 G4 B,2 | B,2 F2 G>A | F3 D _E2- | E2 x2 D2- | DC B,3 A, | A,4 A,>C | C4 =B,2 | C4 A2 | A4 A2 | %19
 F2 E4 | D4 D2- | D4 ^C2 | D4 ^C2 | D6 |] %24
V:6
 D,6 | A,4- A,>G, | F,4 D,2 | B,,2 G,,4 | A,,6 | D,3 E, F,D, | E,2 E,,4 | A,4 A,,2 | D,3 E, F,2 | %9
 B,,2 D,4 | G,,4 G,2 | D,4 E,2 | F,4 A,,2- | A,,2 z2 B,,2- | B,,2 C,4 | F,,4 F,>G, | A,4 D,2 | %17
 C,4- C,A, | B,4 A,2 | G,2 A,2 A,,2 | D,4 F,2 | B,4 A,2 | G,2 A,2 A,,2 | D,6 |] %24

